svgs/thin/envelopes-bulk.svg

<svg xmlns="http://www.w3.org/2000/svg" viewBox="0 0 640 512"><!--! Font Awesome Pro 6.6.0 by @fontawesome - https://fontawesome.com License - https://fontawesome.com/license (Commercial License) Copyright 2024 Fonticons, Inc. --><path d="M432 16c17.7 0 32 14.3 32 32l0 32 16 0 0-32c0-26.5-21.5-48-48-48L112 0C85.5 0 64 21.5 64 48l0 144 16 0L80 48c0-17.7 14.3-32 32-32l320 0zM240 128l352 0c17.7 0 32 14.3 32 32l0 208c0 17.7-14.3 32-32 32l-176 0 0 16 176 0c26.5 0 48-21.5 48-48l0-208c0-26.5-21.5-48-48-48l-352 0c-26.5 0-48 21.5-48 48l0 32 16 0 0-32c0-17.7 14.3-32 32-32zM16 272c0-17.7 14.3-32 32-32l288 0c17.7 0 32 14.3 32 32l0 19.1-4.8 3.5L201.7 414.3c-2.8 2.1-6.2 3.2-9.7 3.2s-6.9-1.1-9.7-3.2L20.8 294.6 16 291.1 16 272zM211.2 427.1L368 311l0 153c0 17.7-14.3 32-32 32L48 496c-17.7 0-32-14.3-32-32l0-153L172.8 427.1c5.6 4.1 12.3 6.3 19.2 6.3s13.6-2.2 19.2-6.3zM0 272L0 464c0 26.5 21.5 48 48 48l288 0c26.5 0 48-21.5 48-48l0-192c0-26.5-21.5-48-48-48L48 224c-26.5 0-48 21.5-48 48zm528-96c-13.3 0-24 10.7-24 24l0 32c0 13.3 10.7 24 24 24l32 0c13.3 0 24-10.7 24-24l0-32c0-13.3-10.7-24-24-24l-32 0zm-8 24c0-4.4 3.6-8 8-8l32 0c4.4 0 8 3.6 8 8l0 32c0 4.4-3.6 8-8 8l-32 0c-4.4 0-8-3.6-8-8l0-32z"/></svg>

<svg xmlns="http://www.w3.org/2000/svg" viewBox="0 0 640 512"><!--! Font Awesome Pro 6.4.2 by @fontawesome - https://fontawesome.com License - https://fontawesome.com/license (Commercial License) Copyright 2023 Fonticons, Inc. --><path d="M432 16c17.7 0 32 14.3 32 32V80h16V48c0-26.5-21.5-48-48-48H112C85.5 0 64 21.5 64 48V192H80V48c0-17.7 14.3-32 32-32H432zM240 128H592c17.7 0 32 14.3 32 32V368c0 17.7-14.3 32-32 32H416v16H592c26.5 0 48-21.5 48-48V160c0-26.5-21.5-48-48-48H240c-26.5 0-48 21.5-48 48v32h16V160c0-17.7 14.3-32 32-32zM16 272c0-17.7 14.3-32 32-32H336c17.7 0 32 14.3 32 32v19.1l-4.8 3.5L201.7 414.3c-2.8 2.1-6.2 3.2-9.7 3.2s-6.9-1.1-9.7-3.2L20.8 294.6 16 291.1V272zM211.2 427.1L368 311V464c0 17.7-14.3 32-32 32H48c-17.7 0-32-14.3-32-32V311L172.8 427.1c5.6 4.1 12.3 6.3 19.2 6.3s13.6-2.2 19.2-6.3zM0 272V464c0 26.5 21.5 48 48 48H336c26.5 0 48-21.5 48-48V272c0-26.5-21.5-48-48-48H48c-26.5 0-48 21.5-48 48zm528-96c-13.3 0-24 10.7-24 24v32c0 13.3 10.7 24 24 24h32c13.3 0 24-10.7 24-24V200c0-13.3-10.7-24-24-24H528zm-8 24c0-4.4 3.6-8 8-8h32c4.4 0 8 3.6 8 8v32c0 4.4-3.6 8-8 8H528c-4.4 0-8-3.6-8-8V200z"/></svg>
